X:227
T:Good Night, Irene
Z:Jack Campin, http://www.campin.me.uk/
F:Jack Campin's Nine-Note Tunebook
% last edit 03-02-2013
M:3/4
L:1/8
Q:3/4=50
K:G %Transposed from F
   D2 |G2 G2 G2|A2 G2 D2| F2 A4- |A4     \
   z2 |d2 d2 d2|A4    BA| G6-    |G4
   d2 |d2 B2 B2|A4    G2| E2 G4- |G2     \
zE EE |D3 A  AA|B4    A2| G6-    |G2 z4||
       G6      |A4    G2|(F4   E2|D6)   |\
       A6      |B4    A2| G6-    |G4
  (GA)|B4    B2|A4    G2| A4   G2|E4     \
   E2 |D4    A2|B4    A2| G6-    |G2 z2|]

